Dominus_Dark_Funeral/scalable/apps/kile.svg

<svg xmlns="http://www.w3.org/2000/svg" xmlns:xlink="http://www.w3.org/1999/xlink" width="48" height="48" viewBox="0 0 12.7 12.7"><defs><linearGradient id="i"><stop offset="0"/><stop offset="1" stop-opacity="0"/></linearGradient><linearGradient id="h"><stop offset="0" stop-color="#b3b3b3"/><stop offset="1" stop-color="#f9f9f9"/></linearGradient><linearGradient id="g"><stop offset="0" stop-color="#28170b"/><stop offset="1" stop-color="#ffe6d5"/></linearGradient><linearGradient id="e"><stop offset="0" stop-color="#483745"/><stop offset="1" stop-color="#e3dbe2"/></linearGradient><linearGradient id="a"><stop offset="0"/><stop offset="1" stop-opacity="0"/></linearGradient><linearGradient id="f"><stop offset="0" stop-color="#37a8f3"/><stop offset="1" stop-color="#366c99"/></linearGradient><linearGradient id="b"><stop offset="0" stop-color="#214478"/><stop offset="1" stop-color="#3771c8"/></linearGradient><linearGradient id="c"><stop offset="0" stop-color="#fff"/><stop offset="1" stop-color="#fff" stop-opacity="0"/></linearGradient><linearGradient id="d"><stop offset="0" stop-color="#ffe253"/><stop offset="1" stop-color="#c8ab37"/></linearGradient><radialGradient xlink:href="#f" id="j" cx="6.35" cy="290.65" fx="6.35" fy="290.65" r="5.35" gradientTransform="matrix(.99998 -.00687 .00893 1.30027 -2.6 -371.53)" gradientUnits="userSpaceOnUse"/><linearGradient xlink:href="#h" id="l" x1="2.554" y1="2.173" x2="2.554" y2="7.352" gradientUnits="userSpaceOnUse"/><linearGradient xlink:href="#i" id="k" gradientUnits="userSpaceOnUse" x1="-.706" y1="1.33" x2="13.272" y2="7.802"/></defs><path d="M6.35.1C4.81.1 3.57.39 2.66.97A3.67 3.67 0 0 0 1 4.22c0 1.91 1.54 4.47 2.01 5.2.54.85 1.13 1.61 1.65 2.16.68.7 1.21 1.03 1.7 1.03.47 0 1-.33 1.68-1.03.52-.55 1.11-1.31 1.65-2.15.47-.74 2-3.3 2-5.21 0-1.42-.57-2.54-1.65-3.25A6.75 6.75 0 0 0 6.35.09z" fill="url(#j)"/><path d="M1.04 3.9c0 .1-.04.2-.04.32 0 1.91 1.54 4.47 2.01 5.2.54.85 1.13 1.61 1.65 2.16.68.7 1.21 1.03 1.69 1.03s1.01-.33 1.69-1.03c.52-.55 1.11-1.31 1.65-2.15.47-.74 2-3.3 2-5.21 0-.11-.02-.21-.03-.32-.02.42-.08.86-.21 1.3-.15.53-.36 1.05-.58 1.53-.44.97-.95 1.8-1.18 2.17-.54.84-1.13 1.6-1.65 2.15-.34.35-.64.61-.92.78-.28.17-.53.25-.77.25s-.5-.08-.77-.25a4.76 4.76 0 0 1-.92-.78A14.41 14.41 0 0 1 3.01 8.9c-.23-.37-.74-1.2-1.18-2.17-.22-.48-.43-1-.58-1.52-.13-.45-.19-.89-.21-1.31z" opacity=".5"/><path d="M7.359 12.156c.215-.16.429-.316.68-.576.52-.55 1.11-1.31 1.65-2.15.236-.37.736-1.195 1.177-2.166.22-.486.427-1.008.578-1.528.15-.52.246-1.039.246-1.516 0-.058-.015-.108-.017-.164L9.96 2.34l-.028.796-.889-.89-.963.462-.133.966-1.502-1.502L4.79 3.325 3.64 2.173 2.553 7.352z" fill="url(#k)" opacity=".4"/><path d="M2.554 2.173v5.179H3.64V5.314l1.654 2.038H6.65l-2.225-2.73 2.02-2.449H5.18L3.64 4.062V2.173zm6.31.075c-.336 0-.597.103-.794.3-.187.186-.29.467-.29.794 0 .374.103.673.327.888.215.224.505.336.87.336.355 0 .645-.121.85-.355.206-.234.319-.542.319-.935a2.468 2.468 0 0 0-.187-.935h-.337a2.15 2.15 0 0 1 .206.907.935.935 0 0 1-.197.636.823.823 0 0 1-.589.252V2.248zm-.112.42v1.45a.692.692 0 0 1-.486-.234.841.841 0 0 1-.177-.552.654.654 0 0 1 .187-.477.648.648 0 0 1 .476-.187zM6.958 5.435v.402h3.122v-.402zm0 1.45v.41h.467v-.41zm.869 0v.41h2.253v-.41H7.836z" fill="url(#l)"/></svg>

<?xml version="1.0" encoding="UTF-8" standalone="no"?>
<svg
   xmlns:dc="http://purl.org/dc/elements/1.1/"
   xmlns:cc="http://creativecommons.org/ns#"
   xmlns:rdf="http://www.w3.org/1999/02/22-rdf-syntax-ns#"
   xmlns:svg="http://www.w3.org/2000/svg"
   xmlns="http://www.w3.org/2000/svg"
   xmlns:xlink="http://www.w3.org/1999/xlink"
   xmlns:sodipodi="http://sodipodi.sourceforge.net/DTD/sodipodi-0.dtd"
   xmlns:inkscape="http://www.inkscape.org/namespaces/inkscape"
   width="48"
   height="48"
   viewBox="0 0 12.7 12.7"
   version="1.1"
   id="svg60"
   sodipodi:docname="kile.svg"
   inkscape:version="0.92.4 (5da689c313, 2019-01-14)">
  <metadata
     id="metadata64">
    <rdf:RDF>
      <cc:Work
         rdf:about="">
        <dc:format>image/svg+xml</dc:format>
        <dc:type
           rdf:resource="http://purl.org/dc/dcmitype/StillImage" />
        <dc:title></dc:title>
      </cc:Work>
    </rdf:RDF>
  </metadata>
  <sodipodi:namedview
     pagecolor="#ffffff"
     bordercolor="#666666"
     borderopacity="1"
     objecttolerance="10"
     gridtolerance="10"
     guidetolerance="10"
     inkscape:pageopacity="0"
     inkscape:pageshadow="2"
     inkscape:window-width="1112"
     inkscape:window-height="480"
     id="namedview62"
     showgrid="false"
     inkscape:zoom="4.9166667"
     inkscape:cx="2.1355932"
     inkscape:cy="24"
     inkscape:window-x="0"
     inkscape:window-y="25"
     inkscape:window-maximized="0"
     inkscape:current-layer="svg60" />
  <defs
     id="defs50">
    <linearGradient
       id="i">
      <stop
         offset="0"
         id="stop2" />
      <stop
         offset="1"
         stop-opacity="0"
         id="stop4" />
    </linearGradient>
    <linearGradient
       id="h">
      <stop
         offset="0"
         stop-color="#b3b3b3"
         id="stop7" />
      <stop
         offset="1"
         stop-color="#f9f9f9"
         id="stop9" />
    </linearGradient>
    <linearGradient
       id="g">
      <stop
         offset="0"
         stop-color="#28170b"
         id="stop12" />
      <stop
         offset="1"
         stop-color="#ffe6d5"
         id="stop14" />
    </linearGradient>
    <linearGradient
       id="e">
      <stop
         offset="0"
         stop-color="#483745"
         id="stop17" />
      <stop
         offset="1"
         stop-color="#e3dbe2"
         id="stop19" />
    </linearGradient>
    <linearGradient
       id="a">
      <stop
         offset="0"
         id="stop22" />
      <stop
         offset="1"
         stop-opacity="0"
         id="stop24" />
    </linearGradient>
    <linearGradient
       id="f">
      <stop
         offset="0"
         stop-color="#37a8f3"
         id="stop27" />
      <stop
         offset="1"
         stop-color="#366c99"
         id="stop29" />
    </linearGradient>
    <linearGradient
       id="b">
      <stop
         offset="0"
         stop-color="#214478"
         id="stop32" />
      <stop
         offset="1"
         stop-color="#3771c8"
         id="stop34" />
    </linearGradient>
    <linearGradient
       id="c">
      <stop
         offset="0"
         stop-color="#fff"
         id="stop37" />
      <stop
         offset="1"
         stop-color="#fff"
         stop-opacity="0"
         id="stop39" />
    </linearGradient>
    <linearGradient
       id="d">
      <stop
         offset="0"
         stop-color="#ffe253"
         id="stop42" />
      <stop
         offset="1"
         stop-color="#c8ab37"
         id="stop44" />
    </linearGradient>
    <radialGradient
       xlink:href="#f"
       id="j"
       cx="6.35"
       cy="290.65"
       fx="6.35"
       fy="290.65"
       r="5.35"
       gradientTransform="matrix(0.99998,-0.00687,0.00893,1.30027,-2.6,-371.53)"
       gradientUnits="userSpaceOnUse" />
    <linearGradient
       xlink:href="#h"
       id="l"
       x1="2.554"
       y1="2.173"
       x2="2.554"
       y2="7.352"
       gradientUnits="userSpaceOnUse" />
    <linearGradient
       xlink:href="#i"
       id="k"
       gradientUnits="userSpaceOnUse"
       x1="-.706"
       y1="1.33"
       x2="13.272"
       y2="7.802" />
  </defs>
  <path
     d="M 6.35,0.1 C 4.81,0.1 3.57,0.39 2.66,0.97 A 3.67,3.67 0 0 0 1,4.22 c 0,1.91 1.54,4.47 2.01,5.2 0.54,0.85 1.13,1.61 1.65,2.16 0.68,0.7 1.21,1.03 1.7,1.03 0.47,0 1,-0.33 1.68,-1.03 0.52,-0.55 1.11,-1.31 1.65,-2.15 0.47,-0.74 2,-3.3 2,-5.21 0,-1.42 -0.57,-2.54 -1.65,-3.25 A 6.75,6.75 0 0 0 6.35,0.09 Z"
     id="path52"
     style="fill:url(#j)"
     inkscape:connector-curvature="0" />
  <path
     d="M 1.04,3.9 C 1.04,4 1,4.1 1,4.22 c 0,1.91 1.54,4.47 2.01,5.2 0.54,0.85 1.13,1.61 1.65,2.16 0.68,0.7 1.21,1.03 1.69,1.03 0.48,0 1.01,-0.33 1.69,-1.03 0.52,-0.55 1.11,-1.31 1.65,-2.15 0.47,-0.74 2,-3.3 2,-5.21 C 11.69,4.11 11.67,4.01 11.66,3.9 11.64,4.32 11.58,4.76 11.45,5.2 11.3,5.73 11.09,6.25 10.87,6.73 10.43,7.7 9.92,8.53 9.69,8.9 9.15,9.74 8.56,10.5 8.04,11.05 7.7,11.4 7.4,11.66 7.12,11.83 6.84,12 6.59,12.08 6.35,12.08 6.11,12.08 5.85,12 5.58,11.83 A 4.76,4.76 0 0 1 4.66,11.05 14.41,14.41 0 0 1 3.01,8.9 C 2.78,8.53 2.27,7.7 1.83,6.73 1.61,6.25 1.4,5.73 1.25,5.21 1.12,4.76 1.06,4.32 1.04,3.9 Z"
     id="path54"
     inkscape:connector-curvature="0"
     style="opacity:0.5" />
  <path
     d="m 7.359,12.156 c 0.215,-0.16 0.429,-0.316 0.68,-0.576 0.52,-0.55 1.11,-1.31 1.65,-2.15 0.236,-0.37 0.736,-1.195 1.177,-2.166 0.22,-0.486 0.427,-1.008 0.578,-1.528 0.15,-0.52 0.246,-1.039 0.246,-1.516 0,-0.058 -0.015,-0.108 -0.017,-0.164 L 9.96,2.34 9.932,3.136 9.043,2.246 8.08,2.708 7.947,3.674 6.445,2.172 4.79,3.325 3.64,2.173 2.553,7.352 Z"
     id="path56"
     style="opacity:0.4;fill:url(#k)"
     inkscape:connector-curvature="0" />
  <path
     d="M 2.554,2.173 V 7.352 H 3.64 V 5.314 L 5.294,7.352 H 6.65 L 4.425,4.622 6.445,2.173 H 5.18 L 3.64,4.062 V 2.173 Z m 6.31,0.075 c -0.336,0 -0.597,0.103 -0.794,0.3 -0.187,0.186 -0.29,0.467 -0.29,0.794 0,0.374 0.103,0.673 0.327,0.888 0.215,0.224 0.505,0.336 0.87,0.336 0.355,0 0.645,-0.121 0.85,-0.355 0.206,-0.234 0.319,-0.542 0.319,-0.935 A 2.468,2.468 0 0 0 9.959,2.341 H 9.622 A 2.15,2.15 0 0 1 9.828,3.248 0.935,0.935 0 0 1 9.631,3.884 0.823,0.823 0 0 1 9.042,4.136 V 2.248 Z m -0.112,0.42 v 1.45 A 0.692,0.692 0 0 1 8.266,3.884 0.841,0.841 0 0 1 8.089,3.332 0.654,0.654 0 0 1 8.276,2.855 0.648,0.648 0 0 1 8.752,2.668 Z M 6.958,5.435 V 5.837 H 10.08 V 5.435 Z m 0,1.45 v 0.41 h 0.467 v -0.41 z m 0.869,0 v 0.41 H 10.08 V 6.885 H 7.836 Z"
     id="path58"
     style="fill:url(#l)"
     inkscape:connector-curvature="0" />
</svg>
